static/img/kroki/b57cdd93c79062b3258bea0fd06db3c5.svg

<?xml version="1.0" encoding="us-ascii" standalone="no"?><svg xmlns="http://www.w3.org/2000/svg" xmlns:xlink="http://www.w3.org/1999/xlink" contentStyleType="text/css" height="152px" preserveAspectRatio="none" style="width:511px;height:152px;" version="1.1" viewBox="0 0 511 152" width="511px" zoomAndPan="magnify"><defs/><g><!--class azure_key_vault--><g id="elem_azure_key_vault"><rect codeLine="23" fill="#3D176E" height="39.7891" id="azure_key_vault" rx="2.5" ry="2.5" style="stroke:#000D19;stroke-width:0.5;" width="179" x="7" y="7"/><ellipse cx="22" cy="26.8945" fill="#ADD1B2" rx="11" ry="11" style="stroke:#181818;stroke-width:1.0;"/><path d="M24.9688,32.5352 Q24.3906,32.832 23.75,32.9727 Q23.1094,33.1289 22.4063,33.1289 Q19.9063,33.1289 18.5781,31.4883 Q17.2656,29.832 17.2656,26.707 Q17.2656,23.582 18.5781,21.9258 Q19.9063,20.2695 22.4063,20.2695 Q23.1094,20.2695 23.75,20.4258 Q24.4063,20.582 24.9688,20.8789 L24.9688,23.5977 Q24.3438,23.0195 23.75,22.7539 Q23.1563,22.4727 22.5313,22.4727 Q21.1875,22.4727 20.5,23.5508 Q19.8125,24.6133 19.8125,26.707 Q19.8125,28.8008 20.5,29.8789 Q21.1875,30.9414 22.5313,30.9414 Q23.1563,30.9414 23.75,30.6758 Q24.3438,30.3945 24.9688,29.8164 L24.9688,32.5352 Z " fill="#000000"/><text fill="#D9B8FF" font-family="Helvetica" font-size="17" lengthAdjust="spacing" textLength="137" x="41" y="32.7798">azure_key_vault</text></g><!--class azure_web_app_service_plan--><g id="elem_azure_web_app_service_plan"><rect codeLine="26" fill="#3D176E" height="39.7891" id="azure_web_app_service_plan" rx="2.5" ry="2.5" style="stroke:#000D19;stroke-width:0.5;" width="283" x="221" y="7"/><ellipse cx="236" cy="26.8945" fill="#ADD1B2" rx="11" ry="11" style="stroke:#181818;stroke-width:1.0;"/><path d="M238.9688,32.5352 Q238.3906,32.832 237.75,32.9727 Q237.1094,33.1289 236.4063,33.1289 Q233.9063,33.1289 232.5781,31.4883 Q231.2656,29.832 231.2656,26.707 Q231.2656,23.582 232.5781,21.9258 Q233.9063,20.2695 236.4063,20.2695 Q237.1094,20.2695 237.75,20.4258 Q238.4063,20.582 238.9688,20.8789 L238.9688,23.5977 Q238.3438,23.0195 237.75,22.7539 Q237.1563,22.4727 236.5313,22.4727 Q235.1875,22.4727 234.5,23.5508 Q233.8125,24.6133 233.8125,26.707 Q233.8125,28.8008 234.5,29.8789 Q235.1875,30.9414 236.5313,30.9414 Q237.1563,30.9414 237.75,30.6758 Q238.3438,30.3945 238.9688,29.8164 L238.9688,32.5352 Z " fill="#000000"/><text fill="#D9B8FF" font-family="Helvetica" font-size="17" lengthAdjust="spacing" textLength="241" x="255" y="32.7798">azure_web_app_service_plan</text></g><!--class azure_web_certificate--><g id="elem_azure_web_certificate"><rect codeLine="29" fill="#3D176E" height="39.7891" id="azure_web_certificate" rx="2.5" ry="2.5" style="stroke:#000D19;stroke-width:0.5;" width="224" x="117.5" y="106.79"/><ellipse cx="132.5" cy="126.6845" fill="#ADD1B2" rx="11" ry="11" style="stroke:#181818;stroke-width:1.0;"/><path d="M135.4688,132.3252 Q134.8906,132.622 134.25,132.7627 Q133.6094,132.9189 132.9063,132.9189 Q130.4063,132.9189 129.0781,131.2783 Q127.7656,129.622 127.7656,126.497 Q127.7656,123.372 129.0781,121.7158 Q130.4063,120.0595 132.9063,120.0595 Q133.6094,120.0595 134.25,120.2158 Q134.9063,120.372 135.4688,120.6689 L135.4688,123.3877 Q134.8438,122.8095 134.25,122.5439 Q133.6563,122.2627 133.0313,122.2627 Q131.6875,122.2627 131,123.3408 Q130.3125,124.4033 130.3125,126.497 Q130.3125,128.5908 131,129.6689 Q131.6875,130.7314 133.0313,130.7314 Q133.6563,130.7314 134.25,130.4658 Q134.8438,130.1845 135.4688,129.6064 L135.4688,132.3252 Z " fill="#000000"/><text fill="#D9B8FF" font-family="Helvetica" font-size="17" lengthAdjust="spacing" textLength="182" x="151.5" y="132.5698">azure_web_certificate</text></g><!--link azure_key_vault to azure_web_certificate--><g id="link_azure_key_vault_azure_web_certificate"><path codeLine="32" d="M122.78,47.22 C146.09,64.36 175.1469,85.7146 198.4469,102.8546 " fill="none" id="azure_key_vault-to-azure_web_certificate" style="stroke:#1A83AF;stroke-width:2.0;"/><polygon fill="#1A83AF" points="203.28,106.41,198.4005,97.8548,199.2524,103.4472,193.66,104.299,203.28,106.41" style="stroke:#1A83AF;stroke-width:2.0;"/></g><!--link azure_web_app_service_plan to azure_web_certificate--><g id="link_azure_web_app_service_plan_azure_web_certificate"><path codeLine="33" d="M336.22,47.22 C312.91,64.36 283.8531,85.7146 260.5531,102.8546 " fill="none" id="azure_web_app_service_plan-to-azure_web_certificate" style="stroke:#1A83AF;stroke-width:2.0;"/><polygon fill="#1A83AF" points="255.72,106.41,265.34,104.299,259.7476,103.4472,260.5995,97.8548,255.72,106.41" style="stroke:#1A83AF;stroke-width:2.0;"/></g><!--SRC=[ZP1FIyD04CNl-HGBFHSQWwQz2B5Gz5B4UXC9a-nikoJP3REJXbRyxhPMPPlqZzTvlvdttgoqH85LpHjHOPKXkS0LsjH0K8c4oBPJMreI0wL0HN5Nd5d3Lu4vL2WUiLmZwnownEjAvuL1vyID9pr0NYp9DaOUpZE1SJi93NlKj0Jd4cRIMSFeXP6JRAnKb-mU7KGoZE-mXrcII3_8Q3IIuQIBNBMwsFkFMEWjYj1_sjmozcBsBBwfYodtX1UoL_HNFvln6QJKPYbklTdB8HCPfAFvOWNIjdjQGUby6yT8Q7bJuxJN2YTZgUAJyDCvECZthnEmRGZJ0ZVf6fgInKSGV1v9BMOfr7NgaDOwnxGkmPocSYJMQjUTyG1qRm_V1c4oZfBP-_3-z5vmmVCVsry0]--></g></svg>

<svg xmlns="http://www.w3.org/2000/svg" width="511" height="152" viewBox="0 0 511 152"><rect width="179" height="39.789" x="7" y="7" fill="#3D176E" rx="2.5" ry="2.5" style="stroke:#000d19;stroke-width:.5"/><circle cx="22" cy="26.895" r="11" fill="#ADD1B2" style="stroke:#181818;stroke-width:1"/><path d="M24.969 32.535q-.578.297-1.219.438-.64.156-1.344.156-2.5 0-3.828-1.64-1.312-1.657-1.312-4.782t1.312-4.781q1.328-1.656 3.828-1.656.703 0 1.344.156.656.156 1.219.453v2.719q-.625-.578-1.219-.844-.594-.281-1.219-.281-1.343 0-2.031 1.078-.687 1.062-.687 3.156t.687 3.172q.688 1.062 2.031 1.062.625 0 1.219-.265.594-.281 1.219-.86z"/><text x="41" y="32.78" fill="#D9B8FF" font-family="Helvetica" font-size="17" textLength="137">azure_key_vault</text><rect width="283" height="39.789" x="221" y="7" fill="#3D176E" rx="2.5" ry="2.5" style="stroke:#000d19;stroke-width:.5"/><circle cx="236" cy="26.895" r="11" fill="#ADD1B2" style="stroke:#181818;stroke-width:1"/><path d="M238.969 32.535q-.578.297-1.219.438-.64.156-1.344.156-2.5 0-3.828-1.64-1.312-1.657-1.312-4.782t1.312-4.781q1.328-1.656 3.828-1.656.703 0 1.344.156.656.156 1.219.453v2.719q-.625-.578-1.219-.844-.594-.281-1.219-.281-1.344 0-2.031 1.078-.687 1.062-.687 3.156t.687 3.172q.688 1.062 2.031 1.062.625 0 1.219-.265.594-.281 1.219-.86z"/><text x="255" y="32.78" fill="#D9B8FF" font-family="Helvetica" font-size="17" textLength="241">azure_web_app_service_plan</text><rect width="224" height="39.789" x="117.5" y="106.79" fill="#3D176E" rx="2.5" ry="2.5" style="stroke:#000d19;stroke-width:.5"/><circle cx="132.5" cy="126.684" r="11" fill="#ADD1B2" style="stroke:#181818;stroke-width:1"/><path d="M135.469 132.325q-.578.297-1.219.438-.64.156-1.344.156-2.5 0-3.828-1.64-1.312-1.657-1.312-4.782t1.312-4.781q1.328-1.656 3.828-1.656.703 0 1.344.156.656.156 1.219.453v2.719q-.625-.579-1.219-.844-.594-.281-1.219-.281-1.344 0-2.031 1.078-.687 1.062-.687 3.156t.687 3.172q.688 1.062 2.031 1.062.625 0 1.219-.265.594-.281 1.219-.86z"/><text x="151.5" y="132.57" fill="#D9B8FF" font-family="Helvetica" font-size="17" textLength="182">azure_web_certificate</text><path fill="none" d="M122.78 47.22c23.31 17.14 52.367 38.495 75.667 55.635" style="stroke:#1a83af;stroke-width:2"/><path fill="#1A83AF" d="m203.28 106.41-4.88-8.555.852 5.592-5.592.852z" style="stroke:#1a83af;stroke-width:2"/><path fill="none" d="M336.22 47.22c-23.31 17.14-52.367 38.495-75.667 55.635" style="stroke:#1a83af;stroke-width:2"/><path fill="#1A83AF" d="m255.72 106.41 9.62-2.111-5.592-.852.851-5.592z" style="stroke:#1a83af;stroke-width:2"/></svg>
